X:1
T:There’s a Song in the Air
T:Karl Pomeroy Harrington, 1904
T:There’s a Song in the Air
T:Public Domain
T:Public Domain
C:Karl Pomeroy Harrington, 1904
Z:Public Domain
%%score ( 1 2 ) ( 3 4 )
L:1/8
M:3/4
K:G
V:1 treble 
V:2 treble 
V:3 bass 
V:4 bass 
V:1
 [B,D]>[B,E] | [B,D]2 [B,G]2 [B,E]2 | [CF]4 [CD]>[CD] | [B,D]2 [DG]2 [GB]2 | [Fd]4 [CD]>[CE] | %5
w: 1.~There’s a|song in the|air! There’s a|star in the|sky! There’s a|
w: 2.~There’s a|tu- mult of|joy o’er the|won- der- ful|birth, For the|
w: 3.~In the|light of that|star lie the|ag- es im-|pearled; And that|
w: 4.~We re-|joice in the|light, and we|e- cho the|song That comes|
 [B,D]2 [DG]2 [DE]2 | [DF]4 [DF]>[DF] | [^CG]2 [CF]2 [CE]2 | D4 [Fd]>[Fd] | [Ge]2 [Gd]2 [DB]2 | %10
w: mo- ther’s deep|prayer and a|ba- by’s low|cry! And the|rains its fire|
w: vir- gin’s sweet|Boy is the|Lord of the|earth. Ay! the|rains its fire|
w: song from a-|far has swept|o- ver the|world. Ev- ery|is a- flame,|
w: down through the|night from the|hea- ven- ly|throng. Ay! we|to the love-|
 [B,A]2 [B,G]2 [B,E]2 | [CD]2 [CF]2 [CA]2 | [Cd]4 [Fd]>[Fd] | [=Fe]2 [Fd]2 [FB]2 | %14
w: while the beau-|ti- ful sing,|For the man-|ger of Beth-|
w: while the beau-|ti- ful sing,|For the man-|ger of Beth-|
w: and the beau-|ti- ful sing|In the homes|of the na-|
w: ly e- van-|gel they bring,|And we greet|in His cra-|
 [EA]2 [EG]2 [Gc]2 | [FB]2 [FA]2 D2 | [DG]6 |] %17
w: le- hem cra-|dles a king!||
w: le- hem cra-|dles a king!||
w: tions that Je-|sus is king!||
w: dle our Sav-|ior and king!||
V:2
 x2 | x6 | x6 | x6 | x6 | x6 | x6 | x6 | D4 x2 | x6 | x6 | x6 | x6 | x6 | x6 | x6 | x6 |] %17
w: ||||||||star|||||||||
w: ||||||||star|||||||||
w: ||||||||hearth|||||||||
w: ||||||||shout|||||||||
V:3
 [G,,G,]>[G,,G,] | [G,,G,]2 [G,,D,]2 [G,,D,]2 | [A,,D,]4 [D,F,]>[D,F,] | G,2 [G,B,]2 [G,D]2 | %4
 [A,C]4 [D,F,]>[D,F,] | G,2 [G,,B,]2 [G,,_B,]2 | [A,,A,]4 [A,,A,]>[A,,A,] | %7
 [A,,B,]2 [A,,A,]2 [A,,G,]2 | [D,F,]4 [D,C]>[D,C] | [G,B,]2 [G,B,]2 G,2 | %10
 [G,,D,]2 [G,,D,]2 [G,,G,]2 | [A,,F,]2 [A,,A,]2 [D,F,]2 | [D,F,]4 [D,C]>[D,C] | %13
 [G,B,]2 [G,B,]2 [G,D]2 | C2 C2 [A,_E]2 | [D,D]2 [D,C]2 [D,C]2 | [G,,B,]6 |] %17
V:4
 x2 | x6 | x6 | x6 | x6 | x6 | x6 | x6 | x6 | x6 | x6 | x6 | x6 | x6 | C2 C2 x2 | x6 | x6 |] %17

